X: 66
T: The Duke of Yourk's Cottillion
R: jig
M: 6/8
L: 1/8
Z: 2012 John Chambers <jc:trillian.mit.edu>
B: Saml. Ann & Peter Thompson "Twenty Four Country Dances for the Year 1791", London 1791, p.33 #2
K: Bb
% - - - - - - - - - - - - - - - - - - - - - - - - -
F |\
BBB B2d | c2c c2d | BAB G2c | (B3 A2)F |\
BBB B2d | c2c cde | fdB ecA | HB3 B,2 :|
F |\
GAB FGF | GAB FGF | GAB FGF | (G3 F2)f |\
f3 d2 | B3 Bdf | fdB Bcd | (d3 c2) "D.C."y|]
% - - - - - - - - Dance description - - - - - - - -
%%begintext align
%% 1st Gent. set to the 2d Lady and turn .|.
%% his Partner do the same with the 2d Gent :|.
%% cross over two Cu. lead up to the top and cast off .|:
%% hands round at bottom Right & Left at top :|:
%%endtext

%%sep 1 1 500
%%sep 1 1 500
